public/cloud-icons/azure/management/quota.svg

<?xml version="1.0" encoding="UTF-8" standalone="no"?>
<!-- Generated by Microsoft Visio, SVG Export Quota.svg Page-1 -->

<svg
   xmlns:dc="http://purl.org/dc/elements/1.1/"
   xmlns:cc="http://creativecommons.org/ns#"
   xmlns:rdf="http://www.w3.org/1999/02/22-rdf-syntax-ns#"
   xmlns:svg="http://www.w3.org/2000/svg"
   xmlns="http://www.w3.org/2000/svg"
   xmlns:sodipodi="http://sodipodi.sourceforge.net/DTD/sodipodi-0.dtd"
   xmlns:inkscape="http://www.inkscape.org/namespaces/inkscape"
   width="0.7873587in"
   height="0.55149066in"
   viewBox="0 0 56.689735 39.707447"
   xml:space="preserve"
   class="st4"
   version="1.1"
   id="svg45"
   sodipodi:docname="Quota.svg"
   style="font-size:12px;overflow:visible;color-interpolation-filters:sRGB;fill:none;fill-rule:evenodd;stroke-linecap:square;stroke-miterlimit:3"
   inkscape:version="0.92.5 (2060ec1f9f, 2020-04-08)"><metadata
   id="metadata49"><rdf:RDF><cc:Work
       rdf:about=""><dc:format>image/svg+xml</dc:format><dc:type
         rdf:resource="http://purl.org/dc/dcmitype/StillImage" /></cc:Work></rdf:RDF></metadata><sodipodi:namedview
   pagecolor="#ffffff"
   bordercolor="#666666"
   borderopacity="1"
   objecttolerance="10"
   gridtolerance="10"
   guidetolerance="10"
   inkscape:pageopacity="0"
   inkscape:pageshadow="2"
   inkscape:window-width="640"
   inkscape:window-height="480"
   id="namedview47"
   showgrid="false"
   inkscape:zoom="1.6433369"
   inkscape:cx="37.79522"
   inkscape:cy="26.467398"
   inkscape:window-x="0"
   inkscape:window-y="0"
   inkscape:window-maximized="0"
   inkscape:current-layer="svg45" />
	<style
   type="text/css"
   id="style2">
	<![CDATA[
		.st1 {fill:url(#grad0-6);stroke:none;stroke-linecap:butt;stroke-width:34}
		.st2 {fill:url(#grad0-10);stroke:none;stroke-linecap:butt;stroke-width:34}
		.st3 {fill:url(#grad0-14);stroke:none;stroke-linecap:butt;stroke-width:34}
		.st4 {fill:none;fill-rule:evenodd;font-size:12px;overflow:visible;stroke-linecap:square;stroke-miterlimit:3}
	]]>
	</style>

	<defs
   id="Patterns_And_Gradients">
		<linearGradient
   id="grad0-6"
   x1="0"
   y1="81.26589"
   x2="47.444865"
   y2="81.26589"
   gradientTransform="scale(1.1948606,0.83691772)"
   gradientUnits="userSpaceOnUse">
			<stop
   offset="0"
   stop-color="#5ea0ef"
   stop-opacity="1"
   id="stop4" />
			<stop
   offset="1"
   stop-color="#0078d4"
   stop-opacity="1"
   id="stop6" />
		</linearGradient>
		<linearGradient
   id="grad0-10"
   x1="-0.053897889"
   y1="59.661342"
   x2="21.578402"
   y2="59.661342"
   gradientTransform="scale(0.75474554,1.3249499)"
   gradientUnits="userSpaceOnUse">
			<stop
   offset="0.33"
   stop-color="#b4ec36"
   stop-opacity="1"
   id="stop9" />
			<stop
   offset="1"
   stop-color="#86d633"
   stop-opacity="1"
   id="stop11" />
		</linearGradient>
		<linearGradient
   id="grad0-14"
   x1="-0.029763724"
   y1="135.16693"
   x2="26.839821"
   y2="135.16693"
   gradientTransform="scale(1.504251,0.66478267)"
   gradientUnits="userSpaceOnUse">
			<stop
   offset="0.43"
   stop-color="#86d633"
   stop-opacity="1"
   id="stop14" />
			<stop
   offset="1"
   stop-color="#76bc2d"
   stop-opacity="1"
   id="stop16" />
		</linearGradient>
	</defs>
	<g
   id="g43"
   transform="translate(-34.000289,-33.997163)">
		<title
   id="title20">Page-1</title>
		<g
   id="group13163-1"
   transform="translate(34,-34.0157)">
			<title
   id="title22">Quota.13163</title>
			<g
   id="group13164-2">
				<title
   id="title24">Sheet.13164</title>
				<g
   id="shape13165-3">
					<title
   id="title26">Sheet.13165</title>
					<path
   d="m 56.69,95.28 a 12.8913,12.7337 0 0 1 -11.55,12.2 12.3433,12.1924 0 0 1 -1.24,0.07 2.59843,2.56665 0 0 1 -0.68,0.1 H 17.37 a 15.8394,15.6457 0 0 1 -1.35,0.06 H 15.97 A 15.4142,15.2257 0 0 1 0,93.08 15.1937,15.0079 0 0 1 13.37,78.62 16.4661,16.2648 0 0 1 29.11,68.02 16.063,15.8665 0 0 1 45.64,83.2 12.7307,12.575 0 0 1 56.69,95.28 Z"
   class="st1"
   id="path28"
   inkscape:connector-curvature="0"
   style="fill:url(#grad0-6);stroke:none;stroke-width:34;stroke-linecap:butt" />
				</g>
				<g
   id="shape13166-7"
   transform="translate(20.2333,-0.0591107)">
					<title
   id="title31">Sheet.13166</title>
					<path
   d="m 15.8,88.79 h -4.08 a 0.472441,0.466663 -180 0 0 -0.472441,0.466663 L 11.25,107.71 H 4.96 V 89.26 A 0.472441,0.466663 -180 0 0 4.487559,88.793337 L 0.43,88.79 A 0.472441,0.466663 0 0 1 0.074094,88.01845 L 7.75,79.21 a 0.475591,0.469774 0 0 1 0.71811,0 l 7.69189,8.8 a 0.472441,0.466663 0 0 1 -0.359055,0.783994 z"
   class="st2"
   id="path33"
   inkscape:connector-curvature="0"
   style="fill:url(#grad0-10);stroke:none;stroke-width:34;stroke-linecap:butt" />
				</g>
				<g
   id="shape13167-11"
   transform="translate(8.18038,-0.00311109)">
					<title
   id="title36">Sheet.13167</title>
					<path
   d="m 34.37,90.02 -5.17,5.92 a 0.472441,0.466663 -180 0 0 0.359055,0.77155 L 32.02,96.71 a 0.475591,0.469774 0 0 1 0.472441,0.469774 L 32.5,107.65 h 2.54 a 2.59843,2.56665 -180 0 0 0.68,-0.1 12.3433,12.1924 -180 0 0 1.24,-0.07 v -10.3 a 0.475591,0.469774 0 0 1 0.472441,-0.469774 L 39.9,96.71 a 0.472441,0.466663 -180 0 0 0.359055,-0.77155 L 35.09,90.03 a 0.472441,0.466663 -180 0 0 -0.71811,-0.0031 z m -29.13,0 -5.17,5.92 a 0.472441,0.466663 -180 0 0 0.359055,0.77155 L 2.9,96.71 a 0.475591,0.469774 0 0 1 0.472441,0.469774 L 3.37,107.23 a 15.4331,15.2443 -180 0 0 4.41,0.48 H 7.83 V 97.18 A 0.475591,0.469774 0 0 1 8.302441,96.710226 L 10.76,96.71 a 0.472441,0.466663 -180 0 0 0.359055,-0.77155 L 5.96,90.02 a 0.472441,0.466663 -180 0 0 -0.71811,0 z"
   class="st3"
   id="path38"
   inkscape:connector-curvature="0"
   style="fill:url(#grad0-14);stroke:none;stroke-width:34;stroke-linecap:butt" />
				</g>
			</g>
		</g>
	</g>
</svg>

<svg xmlns="http://www.w3.org/2000/svg" xml:space="preserve" width="75.586" height="52.943" style="font-size:12px;overflow:visible;color-interpolation-filters:sRGB;fill-rule:evenodd;stroke-linecap:square;stroke-miterlimit:3" viewBox="0 0 56.69 39.707"><defs><linearGradient id="a" x1="0" x2="47.445" y1="81.266" y2="81.266" gradientTransform="scale(1.19486 .83692)" gradientUnits="userSpaceOnUse"><stop offset="0" stop-color="#5ea0ef"/><stop offset="1" stop-color="#0078d4"/></linearGradient><linearGradient id="b" x1="-.054" x2="21.578" y1="59.661" y2="59.661" gradientTransform="scale(.75475 1.32495)" gradientUnits="userSpaceOnUse"><stop offset=".33" stop-color="#b4ec36"/><stop offset="1" stop-color="#86d633"/></linearGradient><linearGradient id="c" x1="-.03" x2="26.84" y1="135.167" y2="135.167" gradientTransform="scale(1.50425 .66478)" gradientUnits="userSpaceOnUse"><stop offset=".43" stop-color="#86d633"/><stop offset="1" stop-color="#76bc2d"/></linearGradient></defs><g transform="translate(-34 -33.997)"><title>Page-1</title><g transform="translate(34 -34.016)"><title>Quota.13163</title><title>Sheet.13164</title><title>Sheet.13165</title><path d="M56.69 95.28a12.891 12.734 0 0 1-11.55 12.2 12.343 12.192 0 0 1-1.24.07 2.598 2.567 0 0 1-.68.1H17.37a15.84 15.646 0 0 1-1.35.06h-.05A15.414 15.226 0 0 1 0 93.08a15.194 15.008 0 0 1 13.37-14.46 16.466 16.265 0 0 1 15.74-10.6A16.063 15.867 0 0 1 45.64 83.2a12.73 12.575 0 0 1 11.05 12.08" style="fill:url(#a);stroke:none;stroke-width:34;stroke-linecap:butt"/><g transform="translate(20.233 -.06)"><title>Sheet.13166</title><path d="M15.8 88.79h-4.08a.472.467-180 0 0-.472.467l.002 18.453H4.96V89.26a.472.467-180 0 0-.472-.467L.43 88.79a.472.467 0 0 1-.356-.772L7.75 79.21a.476.47 0 0 1 .718 0l7.692 8.8a.472.467 0 0 1-.36.784z" style="fill:url(#b);stroke:none;stroke-width:34;stroke-linecap:butt"/></g><g transform="translate(8.18 -.003)"><title>Sheet.13167</title><path d="m34.37 90.02-5.17 5.92a.472.467-180 0 0 .36.772l2.46-.002a.476.47 0 0 1 .472.47l.008 10.47h2.54a2.598 2.567-180 0 0 .68-.1 12.343 12.192-180 0 0 1.24-.07v-10.3a.476.47 0 0 1 .472-.47H39.9a.472.467-180 0 0 .36-.772l-5.17-5.908a.472.467-180 0 0-.718-.003zm-29.13 0L.07 95.94a.472.467-180 0 0 .36.772l2.47-.002a.476.47 0 0 1 .472.47l-.002 10.05a15.433 15.244-180 0 0 4.41.48h.05V97.18a.476.47 0 0 1 .472-.47h2.458a.472.467-180 0 0 .36-.772L5.96 90.02a.472.467-180 0 0-.718 0z" style="fill:url(#c);stroke:none;stroke-width:34;stroke-linecap:butt"/></g></g></g></svg>
